icons/bookmark-a.svg

<svg width="24" height="24" viewBox="0 0 24 24" fill="none" xmlns="http://www.w3.org/2000/svg">
<path fill-rule="evenodd" clip-rule="evenodd" d="M7.75 6.37756C7.75 5.69178 8.31421 5.12756 9 5.12756H15C15.6354 5.12756 16.25 5.63967 16.25 6.37756V8.62756H7.75V6.37756ZM6.25 10.1276V6.37756C6.25 4.86335 7.48579 3.62756 9 3.62756H15C16.3646 3.62756 17.75 4.71545 17.75 6.37756V10.1276V18.5776C17.75 19.9114 16.3639 20.835 15.1279 20.1287L15.0521 20.0854L12.0531 17.2864C12.0195 17.2746 11.9805 17.2746 11.9469 17.2864L8.94791 20.0854L8.8721 20.1287C7.63608 20.835 6.25 19.9114 6.25 18.5776V10.1276ZM16.25 10.1276V18.5776C16.25 18.7165 16.1859 18.7983 16.1225 18.8369C16.075 18.8658 16.0112 18.8818 15.9305 18.8534L12.967 16.0875L12.916 16.0535C12.3641 15.6856 11.6359 15.6856 11.084 16.0535L11.033 16.0875L8.0695 18.8534C7.98885 18.8818 7.92501 18.8658 7.87746 18.8369C7.81411 18.7983 7.75 18.7165 7.75 18.5776V10.1276H16.25Z" fill="black"/>
</svg>

<svg xmlns="http://www.w3.org/2000/svg" fill="none" viewBox="0 0 24 24">
  <path fill="#000" fill-rule="evenodd" d="M7.75 6.378c0-.686.564-1.25 1.25-1.25h6c.635 0 1.25.512 1.25 1.25v2.25h-8.5v-2.25Zm-1.5 3.75v-3.75A2.756 2.756 0 0 1 9 3.628h6c1.365 0 2.75 1.087 2.75 2.75v12.2c0 1.333-1.386 2.257-2.622 1.55l-.076-.043-2.999-2.799a.164.164 0 0 0-.106 0l-3 2.8-.075.043c-1.236.706-2.622-.218-2.622-1.551v-8.45Zm10 0v8.45c0 .139-.064.22-.128.259a.216.216 0 0 1-.191.016l-2.964-2.766-.051-.034a1.658 1.658 0 0 0-1.832 0l-.051.034-2.963 2.766a.216.216 0 0 1-.193-.016c-.063-.039-.127-.12-.127-.26v-8.45h8.5Z" clip-rule="evenodd"/>
</svg>
